Sources/FrostedUI/Resources/Icons.xcassets/cursorFilled32.imageset/cursor-filled-32.svg

<svg width="32" height="32" viewBox="0 0 32 32" fill="none" xmlns="http://www.w3.org/2000/svg" data-fui-icon="true">
  <path
    d="M2.95288 6.8894C2.08593 4.44371 4.44371 2.08592 6.8894 2.95287L27.9929 10.4363C30.651 11.3795 30.7521 15.102 28.1492 16.1882L22.7849 18.4246L27.3474 22.9871C28.5509 24.1912 28.5513 26.1435 27.3474 27.3474C26.1435 28.5513 24.1912 28.5509 22.9871 27.3474L18.4246 22.7859L16.1882 28.1492C15.102 30.752 11.3795 30.651 10.4363 27.9929L2.95288 6.8894Z"
    fill="currentColor"
  />
</svg>

<svg xmlns="http://www.w3.org/2000/svg" width="32" height="32" fill="none" data-fui-icon="true" viewBox="0 0 32 32"><path fill="currentColor" d="M2.953 6.89c-.867-2.446 1.49-4.804 3.936-3.937l21.104 7.483c2.658.944 2.76 4.666.156 5.752l-5.364 2.237 4.562 4.562a3.084 3.084 0 0 1-4.36 4.36l-4.562-4.561-2.237 5.363c-1.086 2.603-4.808 2.502-5.752-.156z"/></svg>
